!!!!SEGMENT: pl-kk--kk-i-382--008_anonim--nro-3-rorate-caeli.krn
!!!cenid: 18xx:1466
!!!COM: Anonim
!!!COM-rismID: pe30004985
!!!CDT:
!!!CNT:
!!!OPR: Nro 3
!!!OTL: Rorate Caeli
!!!OMV: 001
!!!PDT:
!!!AGN: Sacred
!!!SMS-siglum: PL-Kk
!!!SMS-shelfmark: Kk.I.382
!!!SMS-shelfwork: 003-001 M
!!!SMS-variant:
!!!SMS-altvar:
!!!NIFC-rismSourceID: 1001139027
!!!NIFC-rismChildID: 1001139091
!!!NIFC-islandoraID: pl-kk:6162
!!!URL-pdf-islandora: https://repozytorium.nifc.pl/islandora/object/pl-kk%3A6162/datastream/PDF/view
!!!URL-scan: https://polish.musicsources.pl/pl/lokalizacje/galeria/rekopisy/5994 @EN{Scan on Polish Music Sources Website} @PL{Skany w portalu Dziedzictwo Muzyki Polskiej w otwartym dostępie}
!!!IIIF:
!!!ONB-nifc: UWAGA: obsada: S (T 1), T 2, A (B 1), B 2; S (T 1): skan 0008-0009; A (B 1): skan 0152-0153; T 2: skan 0079-0080; B 2: skan 0224-0225
!!!AIN: 1 alto 1 bass 2 tenor
!!!key:
**kern	**text	**kern	**text	**kern	**text	**kern	**text
*part4	*part4	*part3	*part3	*part2	*part2	*part1	*part1
*staff4	*staff4	*staff3	*staff3	*staff2	*staff2	*staff1	*staff1
*Ibass	*	*Itenor	*	*Ialto	*	*Itenor	*
*I"Basso II	*	*I"Tenore II	*	*I"Alto vel Basso I	*	*I"Soprano vel Tenore I.	*
*I'B 2	*	*I'T 2	*	*I'A (B 1)	*	*I'S (T 1)	*
*clefF4	*	*clefC4	*	*clefC3	*	*clefC1	*
*k[]	*	*k[]	*	*k[]	*	*k[]	*
*C:	*	*C:	*	*C:	*	*C:	*
*M4/4	*	*M4/4	*	*M4/4	*	*M4/4	*
*met(C.)	*	*met(C.)	*	*met(C.)	*	*met(C.)	*
=1	=1	=1	=1	=1	=1	=1	=1
*2\right	*	*2\right	*	*2\right	*	*2\right	*
!LO:TX:b:t=P:problem=w źródle "[i]n C." umieszczone przed pierwszym taktem, pod wysokością pięciolinii	!	!	!	!	!	!	!
!LO:TX:b:i:t=[i]n C.	!	!LO:TX:b:i:t=in C.	!	!	!	!	!
!LO:TX:a:t=P:problem=w źródle "Nro 3 Rorate" umieszczone przed pierwszym taktem, na pięciolinii	!	!LO:TX:a:t=P:problem=w źródle "Nro 3 Rorate" umieszczone przed pierwszym taktem, na pięciolinii	!	!LO:TX:a:t=P:problem=w źródle "Nro 3. Rorate." umieszczone przed pierwszym taktem, na pięciolinii	!	!LO:TX:a:t=P:problem=w źródle "Nro 3. Rorate." umieszczone przed pierwszym taktem, na pięciolinii	!
!LO:TX:a:i:t=Nro 3 Rorate	!	!LO:TX:a:i:t=Nro 3 Rorate	!	!LO:TX:a:i:t=Nro 3. Rorate.	!	!LO:TX:a:i:t=Nro 3. Rorate.	!
4r	.	4r	.	4r	.	4r	.
!LO:TX:t=P:problem=all\right&colon; global	!	!LO:TX:t=P:problem=all\right&colon; global	!	!LO:TX:t=P:problem=all\right&colon; global	!	!LO:TX:t=P:problem=all\right&colon; global	!
4c\	Ro-	4c\	Ro-	4e\	Ro-	4g\	Ro-
4G\	-ra-	4B\	-ra-	4d\	-ra-	4g\	-ra-
4c\	-te	4c\	-te	4e\	-te	4g\	-te
=2	=2	=2	=2	=2	=2	=2	=2
!	!LO:MO:mod=cae-	!	!LO:MO:mod=cae-	!	!LO:MO:mod=cae-	!	!LO:MO:mod=cae-
4A\	ce-	4c\	ce-	4c\	ce-	4f#X\	ce-
4G\	-li	4B\	-li	4d\	-li	4g\	-li
4r	.	4r	.	4r	.	4r	.
4E\	ro-	4c\	ro-	4g\	ro-	4g\	ro-
=3	=3	=3	=3	=3	=3	=3	=3
2F\	-ra-	2c\	-ra-	2f\	-ra-	2a\	-ra-
4BB/	-te	4d\	-te	4f\	-te	4g\	-te
4BB/	ro-	4d\	ro-	4f\	ro-	4g\	ro-
=4	=4	=4	=4	=4	=4	=4	=4
(>2C/	-ra-	(>2c\	-ra-	2e\	-ra-	(>2g/	-ra-
2D/	.	(>2B\)	.	2d\	-te	2fn/	.
!	!	!LO:LB:g=original	!	!LO:LB:g=original	!	!	!
=5	=5	=5	=5	=5	=5	=5	=5
2E\)	.	2c\)	.	(>4c\	ro-	4e/	.
.	.	.	.	4e\)	.	4g/)	.
2F\	-te	2A\	-te	4d\	-ra-	(>4f/	-te
.	.	.	.	4c\	-te	4e/)	.
!	!	!	!	!	!	!LO:LB:g=original	!
=6	=6	=6	=6	=6	=6	=6	=6
!	!LO:MO:mod=cae-	!	!LO:MO:mod=cae-	!	!LO:MO:mod=cae-	!	!LO:MO:mod=cae-
4G\	ce-	4G/	ce-	4B\	ce-	4d/	ce-
4C/	-li	4G/	-li	4c\	-li	4e/	-li
4r	.	4r	.	4r	.	4r	.
4c\	ro-	4G/	ro-	4e\	ro-	4cc\	ro-
!LO:LB:g=original	!	!	!	!	!	!	!
=7	=7	=7	=7	=7	=7	=7	=7
4B\	-ra-	4G/	-ra-	4d\	-ra-	4dd\	-ra-
4c\	-te	4G/	-te	4e\	-te	4cc\	-te
!	!LO:MO:mod=cae-	!	!LO:MO:mod=cae-	!	!LO:MO:mod=cae-	!	!LO:MO:mod=cae-
4G\	ce-	4G/	ce-	4d\	ce-	4b\	ce-
4c\	-li	4G/	-li	4e\	-li	4cc\	-li
=8	=8	=8	=8	=8	=8	=8	=8
2.A\	de-	2.G/	de-	2.e\	de-	2.cc\	de-
4A\	-su-	4F#X/	-su-	4c\	-su-	4cc\	-su-
=9	=9	=9	=9	=9	=9	=9	=9
4G\	-per	4G/	-per	4d\	-per	4b\	-per
(<4BB/	de-	2G/	de-	(>4d\	de-	(>4dd\	de-
4C/)	.	.	.	4e\)	.	4cc\)	.
4D/	-su-	4F#X/	-su-	4d\	-su-	4a\	-su-
=10	=10	=10	=10	=10	=10	=10	=10
4G\	-per	4G/	-per,	4d\	-per	2b\	-per
4GG/	ro-	4G/	ro-	(>4d\	ro-	.	.
!	!	!LO:TX:a:t=P:problem=w źródle ta adnotacja zapisana za taktem 10, na pięciolinii	!	!	!	!	!
!	!	!LO:TX:b:i:t=V&colon; S&colon;	!	!	!	!	!
2AA/	.	(>2F#X/	-ra-	2c\)	.	2a\	ro-
!	!	!LO:PB:g=original	!	!LO:LB:g=original	!	!	!
=11	=11	=11	=11	=11	=11	=11	=11
2BB/	.	2G/)	.	(>4B\	-ra-	(>4g\	-ra-
.	.	.	.	4d\)	.	4b\)	.
2C/	.	2E/	-te	(>4c\	-te	(>4a\	-te
.	.	.	.	4B\)	.	4g\)	.
!	!	!	!	!	!	!LO:LB:g=original	!
=12	=12	=12	=12	=12	=12	=12	=12
!	!	!	!LO:MO:mod=cae-	!	!LO:MO:mod=cae-	!	!LO:MO:mod=cae-
4D\	-ra-	4A\	ce-	4A/	ce-	4f#X/	ce-
4GG/	-te	4G/	-li	4B/	-li	4g/	-li
4r	.	4r	.	4r	.	4r	.
4G\	ro-	4G/	ro-	4d\	ro-	4b\	ro-
=13	=13	=13	=13	=13	=13	=13	=13
4F#X\	-ra-	4A/	-ra-	4d\	-ra-	4a\	-ra-
4G\	-te	4G/	-te	4d\	-te	4b\	-te
!	!LO:MO:mod=cae-	!	!LO:MO:mod=cae-	!	!LO:MO:mod=cae-	!	!LO:MO:mod=cae-
4D\	ce-	4F#X/	ce-	4d\	ce-	4a\	ce-
4BB/	-li	4G/	-li	4d\	-li	4b\	-li
!LO:LB:g=original	!	!	!	!	!	!	!
=14	=14	=14	=14	=14	=14	=14	=14
2C/	de-	2.G/	De-	2e\	de-	2.a\	de-
2D/	-su-	.	.	2d\	-su-	.	.
.	.	4F#X/	-su-	.	.	4a\	-su-
=15	=15	=15	=15	=15	=15	=15	=15
4GG/	-per	4G/	-per	4d\	-per	4b\	-per
4G\	et	4B\	et	4r	.	4b\	et
4G\	nu-	4B\	nu-	2r	.	4b\	nu-
4G\	-bes	4B\	-bes	.	.	4b\	-nes
=16	=16	=16	=16	=16	=16	=16	=16
8G\L	plu-	8B\L	plu-	1r	.	8b\L	plu-
8F\	.	8A\	.	.	.	8a\	.
8G\	.	8B\	.	.	.	8b\	.
!	!	!	!	!LO:TX:a:t=1.	!	!	!
8A\J	.	8c\J	.	.	.	8cc\J	.
8G\L	.	8B\L	.	.	.	8b\L	.
8A\	.	8c\	.	.	.	8cc\	.
8G\	.	8B\	.	.	.	8b\	.
8F\J	.	8A\J	.	.	.	8a\J	.
!	!	!LO:LB:g=original	!	!	!	!	!
=17	=17	=17	=17	=17	=17	=17	=17
4E\	-ant	4G/	-ant,	4r	.	4g\	-ant,
4r	.	4c\	et	4e\	et	4r	.
2r	.	4c\	nu-	4e\	nu-	2r	.
.	.	4c\	-bes	4e\	-bes	.	.
!	!	!	!	!LO:LB:g=original	!	!LO:LB:g=original	!
=18	=18	=18	=18	=18	=18	=18	=18
1r	.	8c\L	plu-	8e\L	plu-	1r	.
.	.	8B-X\	.	8d\	.	.	.
.	.	8c\	.	8e\	.	.	.
!LO:TX:b:t=1.	!	!	!	!	!	!LO:TX:b:t=1.	!
.	.	8d\J	.	8f\J	.	.	.
.	.	8c\L	.	8e\L	.	.	.
.	.	8d\	.	8f\	.	.	.
.	.	8c\	.	8e\	.	.	.
.	.	8B-\J	.	8d\J	.	.	.
=19	=19	=19	=19	=19	=19	=19	=19
2r	.	2A/	-ant	2c\	-ant	2r	.
4A\	nu-	4A/	nu-	4f\	nu-	4cc\	nu-
4B-X\	-bes	4G/	-bes	4f\	-bes	(>8b-X\L	-bes
.	.	.	.	.	.	8a\J)	.
=20	=20	=20	=20	=20	=20	=20	=20
4c\	plu-	4c\	plu-	4e\	plu-	4g\	plu-
4F\	-ant	4c\	-ant	4f\	-ant	4a\	-ant
(>4c\	iu-	2c\	iu-	2e\	iu-	2g\	ju-
4C/)	.	.	.	.	.	.	.
!LO:LB:g=original	!	!	!	!	!	!	!
=21	=21	=21	=21	=21	=21	=21	=21
2F\	-stum	2c\	-stum	2f\	-stum	2a\	-stum
4F\	nu-	4c\	nu-	4c\	nu-	4a\	nu-
4E\	-bes	4G/	-bes	4e\	-bes	4cc\	-bes
=22	=22	=22	=22	=22	=22	=22	=22
4D\	plu-	4F/	plu-	4f\	plu-	4bn\	plu-
4C/	-ant	4G/	-ant	4e\	-ant	4cc\	-ant
!	!	!	!	!LO:TX:a:t=P:problem=w źródle ta adnotacja zapisana za taktem 22, na pięciolinii	!	!	!
!	!	!	!	!LO:TX:b:i:t=V&colon; S&colon;	!	!	!
4G\	iu-	2G/	iu-	2d\	iu-	2b\	ju-
4GG/	.	.	.	.	.	.	.
!	!	!	!	!LO:PB:g=original	!	!	!
=23	=23	=23	=23	=23	=23	=23	=23
2C/	-stum	2G/	-stum	2e\	-stum	2cc\	-stum
2c\	a-	2G/	a-	2e\	a-	2ee\	a-
!	!	!	!	!	!	!LO:LB:g=original	!
=24	=24	=24	=24	=24	=24	=24	=24
2c\	-pe-	2A\	-pe-	2f#X\	-pe-	2dd\	-pe-
2B\	-ri-	2B\	-ri-	2g\	-ri-	2dd\	-ri-
=25	=25	=25	=25	=25	=25	=25	=25
2A\	-a-	2c\	-a-	2f#X\	-a-	2ccn\	-a-
2G\	-tur	2B\	-tur	2g\	-tur	2dd\	-tur
=26	=26	=26	=26	=26	=26	=26	=26
2F#X\	ter-	2A\	ter-	2a\	ter-	2dd\	ter-
4G\	-ra	4B\	-ra	4g\	-ra	4dd\	-ra
!LO:TX:a:t=P:problem=w źródle ta adnotacja zapisana za taktem 26, na pięciolinii	!	!	!	!	!	!	!
!LO:TX:b:i:t=V&colon; S&colon;	!	!	!	!	!	!	!
4G\	a-	4B\	a-	4g\	a-	4dd\	a-
!LO:PB:g=original	!	!	!	!	!	!	!
=27	=27	=27	=27	=27	=27	=27	=27
2E\	-pe-	2c\	-pe-	2g\	-pe-	2ee\	-pe-
2Fn\	-ri-	2A\	-ri-	2fn\	-ri-	2cc\	-ri-
=28	=28	=28	=28	=28	=28	=28	=28
2D\	-a-	2F/	-a-	2f\	-a-	4b\	-a-
.	.	.	.	.	.	4b\	-tur
2C/	-tur	2G/	-tur	2e\	-tur	2cc\	ter-
=29	=29	=29	=29	=29	=29	=29	=29
2G\	ter-	1G	ter-	1d	ter-	2cc\	.
2GG/	.	.	.	.	.	2b\	.
!	!	!LO:LB:g=original	!	!	!	!	!
=30	=30	=30	=30	=30	=30	=30	=30
2C/	-ra	2G/	-ra	2e\	-ra	2cc\	-ra
2E\	et	2r	.	2e\	et	2ee\	et
=31	=31	=31	=31	=31	=31	=31	=31
2.F\	ger-	2r	.	2.f\	ger-	2.ff\	ger-
.	.	2A\	et	.	.	.	.
4F\	-mi-	.	.	4f\	-mi-	4ff\	-mi-
!	!	!	!	!LO:LB:g=original	!	!LO:LB:g=original	!
=32	=32	=32	=32	=32	=32	=32	=32
2E\	-net	2.c\	ger-	2e\	-net	2ee\	-net
2r	.	.	.	[>2a\	ger-	4cc\	ger-
.	.	4c\	-mi-	.	.	4cc\	-mi-
=33	=33	=33	=33	=33	=33	=33	=33
2r	.	2B\	-net	2a\]	.	2b\	-net
2E\	et	[>2e\	ger-	2g#X\	-mi-	[>2ee\	ger-
=34	=34	=34	=34	=34	=34	=34	=34
2.F\	ger-	2e\]	.	2a\	-net	2ee\]	.
.	.	2d\	-mi-	2a\	et	2dd\	-mi-
4F\	-mi-	.	.	.	.	.	.
=35	=35	=35	=35	=35	=35	=35	=35
2E\	-net	2e\	-net	2g#X\	ger-	2ee\	-net
[>2A\	ger-	2e\	et	2a\	-mi-	2r	.
=36	=36	=36	=36	=36	=36	=36	=36
2A\]	.	2d\	ger-	2A/	-net	1b	et
2G#X\	-mi-	4d\	-mi-	2r	.	.	.
.	.	4d\	-net	.	.	.	.
!LO:LB:g=original	!	!	!	!	!	!	!
=37	=37	=37	=37	=37	=37	=37	=37
2A\	-net	2.c\	ger-	2r	.	2.cc\	ger-
2A\	et	.	.	2e\	et	.	.
.	.	4A\	-mi-	.	.	4cc\	-mi-
=38	=38	=38	=38	=38	=38	=38	=38
(>1Gn	ger-	1B	-net	2e\	ger-	2b\	-net
.	.	.	.	4e\	-mi-	[>2ee\	ger-
.	.	.	.	4e\	-net	.	.
!	!	!LO:LB:g=original	!	!	!	!	!
=39	=39	=39	=39	=39	=39	=39	=39
(>1F)	.	1r	.	2a\	sal-	2ee\]	.
!	!	!LO:TX:a:t=1.	!	!	!	!	!
.	.	.	.	2a\	-va-	2dd\	-mi-
=40	=40	=40	=40	=40	=40	=40	=40
2E\)	.	[>1c	ger-	1gn	-to-	2ee\	-net
(>2C/	.	.	.	.	.	2ee\	et
!	!	!	!	!LO:LB:g=original	!	!LO:LB:g=original	!
=41	=41	=41	=41	=41	=41	=41	=41
2G\)	.	2c\]	.	2g\	-rem	2dd\	ger-
2GG/	-mi-	2B\	-mi-	(>2g\	sal-	4dd\	-mi-
.	.	.	.	.	.	4dd\	-net
=42	=42	=42	=42	=42	=42	=42	=42
2C/	-net	1c	-net	4g\	.	2cc\	sal-
.	.	.	.	4f\)	.	.	.
[>2c\	sal-	.	.	(>4e\	-va-	2cc\	-va-
.	.	.	.	4d\)	.	.	.
=43	=43	=43	=43	=43	=43	=43	=43
4c\]	.	2.c\	ger-	2c\	-to-	2cc\	-to-
4B\	.	.	.	.	.	.	.
(>4A\	-va-	.	.	2f\	.	2cc\	-rem
4G\)	.	4B\	-mi-	.	.	.	.
=44	=44	=44	=44	=44	=44	=44	=44
(>2F\	-to-	2A\	-net	4f\	.	(>4dd\	sal-
.	.	.	.	4e\	.	4cc\)	.
2G\)	.	2B\	ger-	4d\	.	(>4b\	-va-
.	.	.	.	4c\	.	4a\)	.
=45	=45	=45	=45	=45	=45	=45	=45
(>4G\	.	2B\	-mi-	2Bn/	.	2g\	-to-
4F\	.	.	.	.	.	.	.
4E\	.	2c\	-net	2e\	.	2cc\	.
4D\	.	.	.	.	.	.	.
=46	=46	=46	=46	=46	=46	=46	=46
2C/	.	2c\	sal-	4e\	.	4cc\	.
.	.	.	.	4d\	.	4b\	.
2F\)	.	2c\	-va-	4c\	.	4a\	.
.	.	.	.	4B\	.	4g\	.
!LO:LB:g=original	!	!	!	!	!	!	!
=47	=47	=47	=47	=47	=47	=47	=47
4F\	.	[>1d	-to-	2A/	.	4fn/	.
4E\	.	.	.	.	.	4g/	.
4D\	.	.	.	2a\	.	4f/	.
4C\	.	.	.	.	.	4e/	.
=48	=48	=48	=48	=48	=48	=48	=48
1BB	.	1d]	.	2a\	.	1d	.
.	.	.	.	2g#X\	.	.	.
!	!	!	!	!	!	!LO:LB:g=original	!
=49	=49	=49	=49	=49	=49	=49	=49
2AA/	-rem	2c\	-rem	2a\	-rem	2e/	-rem
4AA/	sal-	4c\	sal-	4e\	sal-	4a\	sal-
4AA/	-va-	4c\	-va-	4e\	-va-	4a\	-va-
!	!	!LO:LB:g=original	!	!LO:LB:g=original	!	!	!
=50	=50	=50	=50	=50	=50	=50	=50
1E	-to-	1B	-to-	1e	-to-	1g#X	-to-
=51	=51	=51	=51	=51	=51	=51	=51
2AA/	-rem	2c\	-rem	2e\	-rem	2a\	-rem
4E\	sal-	4B\	sal-	4e\	sal-	4g#X\	sal-
4E\	-va-	4B\	-va-	4e\	-va-	4g#\	-va-
=52	=52	=52	=52	=52	=52	=52	=52
0AA	-to-	[>1c	-to-	[>1e	-to-	[>1a	-to-
=53	=53	=53	=53	=53	=53	=53	=53
.	.	1c]	.	1e]	.	1a]	.
=54	=54	=54	=54	=54	=54	=54	=54
!LO:N:vis=0	!	!	!	!	!	!LO:N:vis=0	!
1E	-rem.	1B	-rem	1e	-rem.	1g#X	-rem,
!LO:LB:g=original	!	!	!	!	!	!	!
==55	==55	==55	==55	==55	==55	==55	==55
*M4/4	*	*M4/4	*	*M4/4	*	*M4/4	*
*met(c|)	*	*met(C.)	*	*met(c|)	*	*met(C.)	*
!	!	!	!	!LO:TX:t=P:problem=oznaczenie metryczne alla breve	!	!	!
2r	.	2r	.	2r	.	2r	.
2A\	Be-	2A\	be-	2e\	Be-	2cc\	be-
=56	=56	=56	=56	=56	=56	=56	=56
2E\	-ne-	2G#X/	-ne-	2e\	-ne-	2b\	-ne-
2A\	-di-	2A/	-di-	2e\	-di-	2cc\	-di-
=57	=57	=57	=57	=57	=57	=57	=57
2A\	-xi-	2F/	-xi-	2d\	-xi-	2b\	-xi-
2G#X\	-sti	2B\	-sti	2e\	-sti	2b\	-sti
!	!	!	!	!	!	!LO:LB:g=original	!
=58	=58	=58	=58	=58	=58	=58	=58
2A\	Do-	2A/	Do-	2.e\	Do-	2cc\	Do-
2E\	-mi-	2G#X/	-mi-	.	.	2b\	-mi-
.	.	.	.	4e\	-mi-	.	.
!	!	!LO:LB:g=original	!	!	!	!	!
=59	=59	=59	=59	=59	=59	=59	=59
2A\	-ne	2A/	-ne	2e\	-ne	2cc\	-ne
2B\	ter-	[<2Gn/	ter-	2d\	ter-	2dd\	ter-
!	!	!	!	!LO:LB:g=original	!	!	!
=60	=60	=60	=60	=60	=60	=60	=60
2c\	-ram	2G/]	.	2e\	-ram	2cc\	-ram
(>4E\	ter-	2G/	-ram	(>2e\	ter-	[2cc\	tu-
4C\	.	.	.	.	.	.	.
=61	=61	=61	=61	=61	=61	=61	=61
!	!	!	!	!	!	!LO:TX:t=P:problem=w źródle brak taktu nr 61	!
2F\)	.	(<2A/	tu-	2c\)	.	1ryy	.
2C/	-ram	2G/)	.	2e\	-ram	.	.
=62	=62	=62	=62	=62	=62	=62	=62
2G\	tu-	1G	-am	1d	tu-	2cc\]	.
2GG/	.	.	.	.	.	2b\	-am
=63	=63	=63	=63	=63	=63	=63	=63
2C/	-am	(>2G/	a-	2e\	-am	2cc\	a-
[>2A\	a-	2A/	.	(>2e\	a-	(>2cc\	.
!LO:LB:g=original	!	!	!	!	!	!	!
=64	=64	=64	=64	=64	=64	=64	=64
2A\]	.	2F/	.	2d\)	.	2b\)	.
2G\	-ver-	2B\)	-ver-	2e\	-ver-	2b\	-ver-
=65	=65	=65	=65	=65	=65	=65	=65
1F	-tis-	(>2c\	-ti-	(>2e\	-ti-	1a	-ti-
.	.	2A\)	.	2d\)	.	.	.
=66	=66	=66	=66	=66	=66	=66	=66
2E\	-ti	2G#X/	-sti	2e\	-sti	2b\	-sti
!	!	!	!	!	!	!LO:N:vis=2.	!
2A\	cap-	2A/	ca-	2e\	cap-	2cc\	ca-
=67	=67	=67	=67	=67	=67	=67	=67
(>4D\	-ti-	2A\	-pti-	2f\	-ti-	2a\	-pti-
4E\)	.	.	.	.	.	.	.
(>4F\	-vi-	2A\	-vi-	2f\	-vi-	2a\	-vi-
4D\)	.	.	.	.	.	.	.
!	!	!LO:LB:g=original	!	!	!	!LO:LB:g=original	!
=68	=68	=68	=68	=68	=68	=68	=68
2E\	-ta-	2c\	-ta-	2e\	-ta-	2g#X\	-ta-
2F\	-tem	2c\	-tem	2c\	-tem	2a\	-tem
=69	=69	=69	=69	=69	=69	=69	=69
(>2D\	Ja-	1B	Ja-	(>2f\	Ja-	(>2a\	Ja-
2E\)	.	.	.	2e\)	.	2g#X\)	.
!	!	!	!	!LO:LB:g=original	!	!	!
=70	=70	=70	=70	=70	=70	=70	=70
4AA/	-cob	4A\	-cob	4e\	-cob	4a\	-cob,
4A\	cap-	4A\	cap-	4e\	cap-	4r	.
4A\	-ti-	4A\	-ti-	4e\	-ti-	2r	.
4G\	-vi-	4A\	-vi-	4e\	-vi-	.	.
=71	=71	=71	=71	=71	=71	=71	=71
(>2.F\	-ta-	2.A\	-ta-	2f\	-ta-	4r	.
.	.	.	.	.	.	4dd\	cap-
.	.	.	.	2f\	-tem	4dd\	-ti-
4D\	.	4A\	-tem	.	.	4cc\	-vi-
=72	=72	=72	=72	=72	=72	=72	=72
2G\)	.	[>1G	Ja-	(>2d\	Ja-	4b\	-ta-
.	.	.	.	.	.	4b\	-tem
2C/	-tem	.	.	2e\	.	[>2cc\	Ja-
!LO:LB:g=original	!	!	!	!	!	!	!
=73	=73	=73	=73	=73	=73	=73	=73
1G	Ja-	1G]	.	1d)	.	2cc\]	.
.	.	.	.	.	.	2b\	.
=74	=74	=74	=74	=74	=74	=74	=74
4C/	-cob	4G/	-cob	4e\	-cob.	4cc\	-cob,
4C/	cap-	4C/	cap-	4r	.	4r	.
4E\	-ti-	4E/	-ti-	2r	.	2r	.
4F#X\	-vi-	4F#X/	-vi-	.	.	.	.
!	!	!	!	!	!	!LO:LB:g=original	!
=75	=75	=75	=75	=75	=75	=75	=75
!	!	!	!	!LO:TX:a:t=3.	!	!	!
2G\	-ta-	2G/	-ta-	0r	.	4r	.
.	.	.	.	.	.	4g\	cap-
4G\	-tem	4G/	-tem	.	.	4b\	-ti-
!	!	!LO:LB:g=original	!	!	!	!	!
4G\	cap-	4G/	ca-	.	.	4cc#X\	-vi-
=76	=76	=76	=76	=76	=76	=76	=76
4Fn\	-ti-	4Fn/	-pti-	.	.	2dd\	-ta-
4F\	-vi-	4F/	-vi-	.	.	.	.
4F\	-ta-	4F/	-ta-	.	.	4dd\	-tem
4F\	-tem	4F/	-tem	.	.	4dd\	cap-
=77	=77	=77	=77	=77	=77	=77	=77
4r	.	2E/	Ja-	1r	.	2ccn\	-ti-
4C/	cap-	.	.	.	.	.	.
4E\	-ti-	2e\	.	.	.	2cc\	-vi-
4F#X\	-vi-	.	.	.	.	.	.
=78	=78	=78	=78	=78	=78	=78	=78
2G\	-ta-	1d	-cob	4r	.	2b\	-ta-
.	.	.	.	4G/	cap-	.	.
4G\	-tem	.	.	4B/	-ti-	2b\	-tem
4G\	ca-	.	.	4c#X/	-vi-	.	.
!LO:LB:g=original	!	!	!	!	!	!	!
=79	=79	=79	=79	=79	=79	=79	=79
4F\	-pti-	1r	.	2d\	-ta-	(>2a\	Ja-
4F\	-vi-	.	.	.	.	.	.
!	!	!LO:TX:b:t=1.	!	!	!	!	!
4F\	-ta-	.	.	4d\	-tem	2b\)	.
4F\	-tem	.	.	4d\	ca-	.	.
!	!	!	!	!LO:LB:g=original	!	!	!
=80	=80	=80	=80	=80	=80	=80	=80
2E\	Ja-	4r	.	4c\	-pti-	1cc	-cob
.	.	4e\	cap-	4G/	-vi-	.	.
2A\	.	4e\	-ti-	[>2c\	-ta-	.	.
.	.	4e\	-vi-	.	.	.	.
=81	=81	=81	=81	=81	=81	=81	=81
2D\	.	2f\	-ta-	4c\]	.	1r	.
!	!	!	!	!	!	!LO:TX:a:t=1.	!
.	.	.	.	4c\	-tem	.	.
2G\	.	2f\	-tem	2B/	Ja-	.	.
=82	=82	=82	=82	=82	=82	=82	=82
2C/	-cob	1e	Ja-	1c	-cob.	4r	.
.	.	.	.	.	.	4c/	ca-
2c\	cap-	.	.	.	.	4e/	-pti-
.	.	.	.	.	.	4f#X/	-vi-
=83	=83	=83	=83	=83	=83	=83	=83
(>4B\	-ti-	1d	.	1r	.	2g/	-ta-
4G\)	.	.	.	.	.	.	.
!	!	!	!	!LO:TX:a:t=1.	!	!	!
(>4A\	-vi-	.	.	.	.	4g/	-tem
4B\)	.	.	.	.	.	4g/	ca-
!	!	!	!	!	!	!LO:LB:g=original	!
=84	=84	=84	=84	=84	=84	=84	=84
2c\	-ta-	2e\	-cob	2r	.	(<4e/	-pti-
.	.	.	.	.	.	4g/)	.
2C/	-tem	2r	.	2c\	cap-	(<4fn/	-vi-
.	.	.	.	.	.	4e/)	.
!	!	!LO:LB:g=original	!	!	!	!	!
=85	=85	=85	=85	=85	=85	=85	=85
0G	Ja-	2r	.	(<4B/	-ti-	2d/	-ta-
.	.	.	.	4G/)	.	.	.
.	.	2G/	cap-	(<4A/	-vi-	4d/	-tem
.	.	.	.	4B/)	.	4d/	ca-
=86	=86	=86	=86	=86	=86	=86	=86
.	.	4E/	-ti-	2c/	-ta-	2e/	-pti-
.	.	4G/	-vi-	.	.	.	.
.	.	4c\	-ta-	2G/	-tem	2e/	-vi-
.	.	4c\	-tem	.	.	.	.
=87	=87	=87	=87	=87	=87	=87	=87
0G	.	2B\	Ja-	[>1G	Ja-	2d/	-ta-
.	.	[>2c\	.	.	.	2e/	-tem
=88	=88	=88	=88	=88	=88	=88	=88
.	.	2c\]	.	1G]	.	1d	Ja-
.	.	2B\	.	.	.	.	.
=89	=89	=89	=89	=89	=89	=89	=89
!	!	!LO:TX:a:t=P:problem=w źródle ta adnotacja zapisana za taktem 89, na pięciolinii	!	!	!	!LO:TX:a:t=P:problem=w źródle ta adnotacja zapisana za taktem 89, na pięciolinii	!
!	!	!	!	!	!	!LO:TX:b:i:t=V&colon; S&colon;	!
!LO:N:vis=0	!	!LO:TX:b:i:t=V&colon; S&colon;	!	!	!	!LO:N:vis=0	!
1C	-cob.	1c	-cob.	1G	-cob.	1e	-cob.
!LO:LB:g=original	!	!LO:PB:g=original	!	!LO:LB:g=original	!	!LO:LB:g=original	!
==90	==90	==90	==90	==90	==90	==90	==90
*M3/2	*	*M3/2	*	*M3/2	*	*M3/2	*
*	*	*	*	*	*	*rscale:1/2	*
!	!	!	!	!	!	!LO:TX:t=P:problem=w źródle ten fragment tego głosu zapisany w metrum 3/4; zamieniono na 3/2 - zgodnie z pozostałymi głosami; użyto *rscale	!
2.F\	Glo-	2.c\	Glo-	2.f\	glo-	2.a\	Glo-
4F\	-ri-	4c\	-ri-	4f\	-ri-	4a\	-ri-
2F\	-a	2c\	-a	2f\	-a	2a\	-a
=91	=91	=91	=91	=91	=91	=91	=91
1B-X	pa-	2B-X\	pa-	(>2d\	pa-	2f/	pa-
.	.	1c	-tri	2e\)	.	2g/	-tri
2A\	-tri	.	.	2f\	-tri	2a/	.
=92	=92	=92	=92	=92	=92	=92	=92
2.G\	glo-	2.B-X\	glo-	2.e\	glo-	2.b-X\	glo-
4G\	-ri-	4B-\	-ri-	4e\	-ri-	4b-\	-ri-
2F\	-a	2c\	-a	2f\	-a	2a\	-a
=93	=93	=93	=93	=93	=93	=93	=93
2.c\	fi-	2.c\	fi-	2.e\	fi-	2.g\	fi-
4C/	-li-	4c\	-li-	4e\	-li-	4g\	-li-
2C/	-o	2c\	-o	2e\	-o	2g\	-o
=94	=94	=94	=94	=94	=94	=94	=94
2r	.	2r	.	2r	.	2r	.
2F\	et	2c\	et	2f\	et	2a\	et
2E\	spi-	2c\	spi-	2g\	spi-	2cc\	spi-
=95	=95	=95	=95	=95	=95	=95	=95
2.D\	-ri-	2.F/	-ri-	2.f\	-ri-	2.bn\	-ri-
4D\	-tu-	4F/	-tu-	4f\	-tu-	4b\	-tu-
2C/	-i	2G/	-i	2e\	-i	2cc\	-i
!LO:LB:g=original	!	!	!	!	!	!	!
=96	=96	=96	=96	=96	=96	=96	=96
(>2A\	San-	1A	San-	(>2e\	san-	(>1cc	san-
2F\	.	.	.	1d)	.	.	.
2G\)	.	2G/	.	.	.	2bn\)	.
!	!	!LO:LB:g=original	!	!LO:LB:g=original	!	!LO:LB:g=original	!
=97	=97	=97	=97	=97	=97	=97	=97
2C/	-cto	2G/	-cto	2e\	-cto	2cc\	-cto
2c\	si-	2c\	si-	2e\	si-	2g\	si-
2c\	-cut	2c\	-cut	2e\	-cut	2g\	-cut
=98	=98	=98	=98	=98	=98	=98	=98
1c	e-	1c	e-	1d	e-	1f#X	e-
2Bn\	-rat	2Bn\	-rat	2e\	-rat	2g/	-rat
=99	=99	=99	=99	=99	=99	=99	=99
1A	in	1A	in	1c	in	1f#X	in
2G\	prin-	2G/	prin-	2d\	prin-	2b\	prin-
=100	=100	=100	=100	=100	=100	=100	=100
2.F#X\	-ci-	2.F#X/	-ci-	2.d\	-ci-	2.a\	-ci-
4F#\	-pi-	4F#/	-pi-	4d\	-pi-	4a\	-pi-
2G\	-o	2G/	-o	2d\	-o	2g\	-o
=101	=101	=101	=101	=101	=101	=101	=101
2F#X\	et	2d\	et	2d\	et	2f#X/	et
2F#\	nunc	2d\	nunc	2d\	nunc	2f#/	nunc
2G\	et	2B\	et	2d\	et	2g\	et
=102	=102	=102	=102	=102	=102	=102	=102
(>1G	sem-	(>2e\	sem-	(>2c\	sem-	(>1g	sem-
.	.	2c\	.	1A)	.	.	.
2F#X\)	.	2d\)	.	.	.	2f#X\)	.
!LO:LB:g=original	!	!	!	!	!	!LO:LB:g=original	!
=103	=103	=103	=103	=103	=103	=103	=103
2G\	-per	2G/	-per	2B/	-per	2g\	-per
2G\	et	2G/	et	2d\	et	2b\	et
2G\	in	2G/	in	2d\	in	2b\	in
!	!	!LO:LB:g=original	!	!LO:LB:g=original	!	!	!
=104	=104	=104	=104	=104	=104	=104	=104
!	!LO:MO:mod=sae-	!	!LO:MO:mod=sae-	!	!LO:MO:mod=sae-	!	!LO:MO:mod=sae-
2c\	se-	2G/	se-	2e\	se-	2cc\	se-
4c\	-cu-	4G/	-cu-	4e\	-cu-	4cc\	-cu-
4B\	-la	4G/	-la	4e\	-la	4dd\	-la
!	!LO:MO:mod=sae-	!	!LO:MO:mod=sae-	!	!LO:MO:mod=sae-	!	!LO:MO:mod=sae-
4A\	se-	4A/	se-	4f\	se-	4cc\	se-
4G\	-cu-	4E/	-cu-	4g\	-cu-	4b\	-cu-
=105	=105	=105	=105	=105	=105	=105	=105
1Fn	-lo-	2F/	-lo-	(>2c\	-lo-	(>2a\	-lo-
.	.	1G	-rum	2d\)	.	2b\)	.
2E\	-rum	.	.	2e\	-rum	2cc\	-rum
=106	=106	=106	=106	=106	=106	=106	=106
(>2F\	a-	2A/	a-	2r	.	1cc	a-
1G)	.	1G	-men	2G/	a-	.	.
.	.	.	.	2G/	-men	2b\	-men.
=107	=107	=107	=107	=107	=107	=107	=107
2C/	-men	2r	.	(>1.c	a-	1.r	.
!	!	!	!	!	!	!LO:TX:a:t=1.	!
2C/	a-	2e\	a-	.	.	.	.
2C/	-men	2e\	-men	.	.	.	.
!	!	!	!	!	!	!LO:LB:g=original	!
=108	=108	=108	=108	=108	=108	=108	=108
!LO:TX:a:t=P:problem=w źródle ta adnotacja zapisana za taktem 108, na pięciolinii	!	!	!	!	!	!	!
!LO:TX:b:i:t=V&colon; S&colon;	!	!	!	!	!	!	!
1.F	a-	(>1.A	a-	2c/	.	2r	.
.	.	.	.	2B/	.	2c/	a-
!	!	!	!	!LO:TX:a:t=P:problem=w źródle ta adnotacja zapisana za taktem 108, na pięciolinii	!	!	!
!	!	!	!	!LO:TX:b:i:t=V&colon; S&colon;	!	!	!
.	.	.	.	2A/)	-men	2c/	-men
!LO:PB:g=original	!	!	!	!	!	!	!
=109	=109	=109	=109	=109	=109	=109	=109
2F\	-a-	2A/	.	1.d	a-	1.f	a-
2E\	.	2G/)	.	.	.	.	.
2D\	.	2F/	-men	.	.	.	.
=110	=110	=110	=110	=110	=110	=110	=110
[>1.G	.	(>1.Bn	a-	2d\	.	1.d	-men
.	.	.	.	2c\	.	.	.
.	.	.	.	2B/	-men	.	.
=111	=111	=111	=111	=111	=111	=111	=111
2G\]	.	2B\	.	1.e	a-	1.g/	a-
2F\	.	2A\)	.	.	.	.	.
2E\	.	2G\	-men	.	.	.	.
=112	=112	=112	=112	=112	=112	=112	=112
[>1.A	.	(>1.c	a-	2e\	.	1.e	-men
.	.	.	.	2d\	.	.	.
.	.	.	.	2c\	-men	.	.
!	!	!LO:LB:g=original	!	!	!	!	!
=113	=113	=113	=113	=113	=113	=113	=113
2A\]	.	2c\	.	1.f	a-	1a	a-
2G\	.	2B\)	.	.	.	.	.
2F\	.	2A\	-men	.	.	2a\	-men
=114	=114	=114	=114	=114	=114	=114	=114
2G\	.	(>2B\	a-	2f\	.	(>2d/	a-
2A\	.	2c\	.	2e\	.	2a\)	.
2Bn\	.	2d\	.	2d\	.	2g\	-men
=115	=115	=115	=115	=115	=115	=115	=115
2c\	.	1c	.	2e\	.	(>2g\	a-
2F\	.	.	.	1d	.	2a\	.
2G\	.	2B\)	.	.	.	2g\)	.
=116	=116	=116	=116	=116	=116	=116	=116
2C/	-men	2c\	-men	2e\	-men	2g\	-men
(>2c\	a-	(>2c\	a-	2e\	a-	1g	a-
2G\)	.	2B\)	.	2d\	.	.	.
!LO:LB:g=original	!	!	!	!	!	!LO:LB:g=original	!
=117	=117	=117	=117	=117	=117	=117	=117
1.F	-men	1.B	-men	1.d	-men	1.g	-men
=118	=118	=118	=118	=118||	=118||	=118	=118
2r	.	2r	.	2r	.	2r	.
2E\	a-	2c\	a-	2e\	a-	2g\	a-
2F\	-men	2c\	-men	2d\	-men	2a\	-men
=119	=119	=119	=119	=119	=119	=119	=119
(>1G	a-	(>1c	a-	1.d	a-	1.g	a-
2GG/)	.	2B\)	.	.	.	.	.
=120	=120	=120	=120	=120	=120	=120	=120
1.C	-men.	1.c	-men.	1.e	-men.	1.g	-men.
==	==	==	==	==	==	==	==
*-	*-	*-	*-	*-	*-	*-	*-
!!!system-decoration: [(s1,s2,s3,s4)]
!!!RDF**kern: > = above
!!!RDF**kern: < = below
!!!EED: Antoni Szymański
!!!EEV: 2021-02-02
!!!ENC: Andrzej Kubiczek
!!!END: 2021-01-27
!!!YEC: Copyright 2022 Narodowy Instytut Fryderyka Chopina (https://polishscores.org)
!!!YEM: License CC-BY-4.0 (https://creativecommons.org/licenses/by/4.0)
